X:41
T:Bannissons d'ici. [FJ41]
S:Festin joyeux.  Music page 20.
Z:transcribed by Eric Conrad, 2021.
N:NB The meter is given simply as "3"
N:NB In the MS, the G is the bottom line of the staff
N:NB Repeat marks were added at beginning and end.
N:NB The MS repeat mark is 4 vertical dots enclosed by bars on both sides.
N:NB The plus signs seem to indicate some kind of roll or trill.
M:3/4
L:1/4
% K:C clef=treble1 % staff GBdfa
K:C % no accidentals in sig and end C (C Major)
|: c>de | cg2 | e2d | "^+"e2e | c>de |
cg2 | "^+"e2d | "^+"e3 :: c>de | Ad2 | "^+"B2B |
c2c | c>de | Ad2 | "^+"B2c | c3 :|


